packages/symbols/svgs/outline/sort-outline.svg

<svg width="24" height="24" viewBox="0 0 24 24" fill="none" xmlns="http://www.w3.org/2000/svg">
<path fill-rule="evenodd" clip-rule="evenodd" d="M12 2C12.2968 2 12.5782 2.13182 12.7682 2.35982L17.7682 8.35982C18.0166 8.6579 18.0702 9.07277 17.9056 9.42416C17.741 9.77554 17.388 10 17 10H7.00001C6.61199 10 6.259 9.77554 6.09442 9.42416C5.92984 9.07277 5.98339 8.6579 6.23179 8.35982L11.2318 2.35982C11.4218 2.13182 11.7032 2 12 2ZM9.13505 8H14.865L12 4.56205L9.13505 8Z" fill="black"/>
<path fill-rule="evenodd" clip-rule="evenodd" d="M6.09442 14.5758C6.259 14.2245 6.61199 14 7.00001 14H17C17.388 14 17.741 14.2245 17.9056 14.5758C18.0702 14.9272 18.0166 15.3421 17.7682 15.6402L12.7682 21.6402C12.5782 21.8682 12.2968 22 12 22C11.7032 22 11.4218 21.8682 11.2318 21.6402L6.23179 15.6402C5.98339 15.3421 5.92984 14.9272 6.09442 14.5758ZM9.13505 16L12 19.438L14.865 16H9.13505Z" fill="black"/>
</svg>

<svg width="24" height="24" viewBox="0 0 24 24" xmlns="http://www.w3.org/2000/svg"><path fill-rule="evenodd" clip-rule="evenodd" d="M12 2a1 1 0 0 1 .768.36l5 6A1 1 0 0 1 17 10H7a1 1 0 0 1-.768-1.64l5-6A1 1 0 0 1 12 2ZM9.135 8h5.73L12 4.562 9.135 8Zm-3.041 6.576A1 1 0 0 1 7 14h10a1 1 0 0 1 .768 1.64l-5 6a1 1 0 0 1-1.536 0l-5-6a1 1 0 0 1-.138-1.064ZM9.135 16 12 19.438 14.865 16h-5.73Z"/></svg>
